X:13
T:Valse  5 temps
C:trad.
S:collecte par Edouard BAUER du Folk de la rue des Dentelles Strasbourg
H:collecte dans les annes 70
A:Alsace
O:France
M:5/4
L:1/4
Q:1/4=210
K:G
D/2G/2|FAGBB|AcB2D/2G/2|FAGBd|cAG2:|
d|cABGd|cAB2D/2G/2|FAGBd|cAd2d|cABGd
|cAB2D/2G/2|FAGBd|cAG2
